X:220
T:Reel du Printemps
C:Joseph Allard
M:2/4
L:1/16
Z:abc by Bruce Osborne - bosborne@kos.net
K:A
eg|a2AA cAec|Bcde fefg|a2AA cAeA|fAgA a2eg|!
a2AA cAec|Bcde fefg|afge fdec|dfec A2:|!
|:ed|cAEA Acec|Bcde f2ed|cAEA Acec|dfec dBBd|!
cAEA Acec|Bcde fefg|afge fdec|dfec A2:|!
